client/svg/paste.svg

<svg xmlns="http://www.w3.org/2000/svg" width="32" height="32" viewBox="0 0 32 32"><path d="M26 10v-5c0-0.55-0.45-1-1-1h-7v-2c0-1.1-0.9-2-2-2h-4c-1.1 0-2 0.9-2 2v2h-7c-0.55 0-1 0.45-1 1v20c0 0.55 0.45 1 1 1h9v6h14l6-6v-16h-6zM12 2.004c0.001-0.001 0.002-0.002 0.004-0.004h3.993c0.001 0.001 0.003 0.002 0.004 0.004v1.996h-4v-1.996zM6 8v-2h16v2h-16zM26 29.172v-3.172h3.172l-3.172 3.172zM30 24h-6v6h-10v-18h16v12z"/></svg>

<svg xmlns="http://www.w3.org/2000/svg" width="32" height="32" viewBox="0 0 32 32"><path d="M26 10V5c0-.55-.45-1-1-1h-7V2c0-1.1-.9-2-2-2h-4c-1.1 0-2 .9-2 2v2H3c-.55 0-1 .45-1 1v20c0 .55.45 1 1 1h9v6h14l6-6V10h-6zM12 2.004L12.004 2h3.993l.004.004V4h-4V2.004zM6 8V6h16v2H6zm20 21.172V26h3.172L26 29.172zM30 24h-6v6H14V12h16v12z"/></svg>
